X:1
T:Laura felice vita di mia vita
T:Tiburtio Massaino
T:Laura felice vita di mia vita 
C:Tiburtio Massaino
%%score [ 1 2 3 4 ]
L:1/8
Q:1/4=120
M:3/2
K:C
V:1 alto1 nm="Canto" snm="C"
V:2 alto nm="Alto" snm="A"
V:3 tenor nm="Tenore" snm="T"
V:4 bass nm="Basso" snm="B"
V:1
 z12 |[K:D][K:treble][Q:1/4=180] B4 B4 B4 | ^A8 B4 | B4 B4 B4 | ^A8 B4 | G6 G2 F4 | E4 ^D8 | %7
w: |Lau- ra fe-|li- ce,|Lau- ra fe-|li- ce|vi- ta di|mia vi-|
[M:4/2][Q:1/4=120] E8 z4 F4 | G4 A2 B4 c2 d4 | d4 z2 B2 A2 B2 F2 F2 | G3 A B4 F2 d2 c2 d2 | %11
w: ta, Che|co- sì dol- ce- men-|te, Che co- sì dol- ce-|men- * * te, Che co- sì|
 B3 c d4 c4 z2 B2 | c2 d2 B4 A2 B2 G4 | F2 F2 G4 F4 z4 | z4 e4 d2 d2 =c4 | B2 B2 A4 B3 A G4 | %16
w: dol- ce- men- te, A|l'a- mo- ro- so suo fo-|co m'in- vi- ta,|A l'a- mo- ro-|so suo fo- co m'in- vi-|
 F4 z4 z4 c4- | c2 c2 c4 d4 A4- | A4 B6 A2 G4 | F8 z8 | z8 z4 A4 | B2 c2 d6 c2 c4 | d8 z4 A4- | %23
w: ta, Con|_ si dol- ce dol-|* cez- * *|za,|M'in-|fiamm' il cor so- ven-|te, M'in-|
 A4 B6 A2 B2 c2 | d4 A4 z2 B4 G2- | G2 F2 G4 A4 B4 | z4 B8 A4- | A4 B4 G8 | F8 z2 F4 D2 | %29
w: * fiamm' il cor so-|ven- te, Che di|_ quel dol- ce ar- dor|pren- do|_ va- ghez-|za, E si|
 E4 F2 G2 E4 D4 | z16 | z16 | z2 E2 F2 G2 A4 B2 c2- | c2 d2 c2 B2 B2 ^A2 B2 B,2 | D2 E2 F4 z4 B4 | %35
w: dol- ce e'l gio- i- re,|||Che di dol- cez- za sen-|* to- mi mo- ri- * re, Et|ben mor- ro, Et|
 B4 A4 B4 z4 | B8 d4 c4 | B8 z2 F2 G3 A | B2 B2 ^A4 B8 | z8 z4 z2 F2 | G2 A2 B2 B2 ^A4 B4 | %41
w: ben mor- ro,|Et ben mor-|ro se to- sto|non m'a- i- ta,|se|to- sto non m'a- i- ta,|
[M:3/2][Q:1/4=180] B4 B4 B4 | ^A8 B4 | B4 B4 B4 | ^A8 B4 | G6 G2 F4 | E4 ^D8 | E12 |] %48
w: Lau- ra fe-|li- ce,|Lau- ra fe-|li- ce|vi- ta di|mia vi-|ta.|
V:2
 z12 |[K:D][K:treble] F4 G4 D4 | F8 F4 | F4 G4 D4 | F8 F4 | D6 D2 D4 | B,4 B,8 |[M:4/2] B,16 | %8
w: |Lau- ra fe-|li- ce,|Lau- ra fe-|li- ce|vi- ta di|mia vi-|ta,|
 z4 D4 E4 F4 | G3 F E2 D2 z2 D2 D2 D2 | B,2 =C2 B,3 ^C D3 E F4 | D2 G4 F2 A4 D4 | %12
w: Che co- sì|dol- ce- men- te, Che co- sì|dol- ce- men- * * * *|te, dol- ce- men- te,|
 z2 F2 D2 E2 F4 B,2 C2 | D4 B,2 E2 E2 ^D2 E4 | z4 E4 F2 G2 E4 | D2 E2 =C4 B,2 C2 B,4- | %16
w: A l'a- mo- ro- so suo|fo- co m'in- vi- * ta,|A l'a- mo- ro-|so suo fo- co m'in- vi-|
 B,4 !fermata!A,4 z4 E4- | E2 E2 E4 F4 F4- | F4 D4 E4 B,3 C | D4 D2 F2 F2 F2 G2 G2 | F4 E4 z4 F4 | %21
w: * ta, Con|_ si dol- ce, Con|_ si dol- ce dol-|cez- za, M'in- fiamm' il cor so-|ven- te, M'in-|
 E4 D4 A4 z2 F2 | E2 D2 A8 E4 | F4 E2 D2 E2 F2 G4- | G2 FE F4 F2 G4 E2- | E2 F2 E4 C2 D4 B,2- | %26
w: fiamm' il cor, M'in-|fiamm' il cor so-|ven- * * * * *|* * * * te, Che di|_ quel dol- ce, Che di|
 B,2 =C2 B,2 F2 E4 ^C4 | D4 B,4 E8 | A,2 D4 D2 F4 D2 F2 | B,3 C D2 B,2 G2 E2 G4 | F2 A2 G4 F4 z4 | %31
w: _ quel dol- ce ar- dor pren-|do va- ghez-|za, E si dol- ce e'l gio-|i- * * re, E si dol-|ce e'l gio- i- re,|
 z16 | z2 C2 D2 E2 F4 G2 F2- | F2 F2 E2 D2 C4 B,4 | z4 C4 D4 E4 | F16 | z4 B,4 B,4 A,4 | %37
w: |Che di dol- cez- za sen-|* to- mi mo- ri- re,|Et ben mor-|ro,|Et ben mor-|
 B,12 z2 B,2 | D2 E2 F2 F2 G8 | F4 z2 F2 G2 A2 B2 A2 | GF F4 E2 F8 |[M:3/2] F4 G4 D4 | F8 F4 | %43
w: ro se|to- sto non m'a- i-|ta, se to- sto non m'a-|i- * * * ta,|Lau- ra fe-|li- ce,|
 F4 G4 D4 | F8 F4 | D6 D2 D4 | B,4 B,8 | B,12 |] %48
w: Lau- ra fe-|li- ce|vi- ta di|mia vi-|ta.|
V:3
 z12 |[K:D][K:treble-8] ^d4 e4 B4 | c8 ^d4 | d4 e4 B4 | c8 d4 | B6 B2 A4 | G4 F8 |[M:4/2] E8 z8 | %8
w: |Lau- ra fe-|li- ce,|Lau- ra fe-|li- ce|vi- ta di|mia vi-|ta,|
 z8 z4 A4 | B4 c2 d4 B2 A4 | G4 z2 B2 A2 B2 F2 F2 | G3 A B4 F4 z2 B2 | A2 A2 G4 F2 F2 G4 | %13
w: Che|co- sì dol- ce- men-|te, Che co- sì dol- ce-|men- * * te, A|l'a- mo- ro- so suo fo-|
 D2 D2 EFGA B6 AG | A4 A4 z2 B2 G2 A2 | B4 E2 F2 G4 E2 e2 | e2 d2 e4 z8 | A6 A2 A8 | %18
w: co m'in- vi- * * * * * *|* ta, A l'a- mo-|ro- so suo fo- co m'in-|vi- * ta,|Con si dol-|
 F4 F4 G2 A2 B2 G2 | A8 B2 A2 B3 c | d6 c2 c4 d4 | z8 z4 A4 | G4 F4 A8 | F4 G6 F2 E4 | %24
w: ce dol- cez- * * *|* za, M'in- fiamm' il|cor so- ven- te,|M'in-|fiamm' il cor|so- ven- * *|
 D4 z2 d4 B4 =c2 | B6 G2 F2 f4 g2- | g2 e2 f4 g4 f4 | f4 e2 d4 cB c4 | d2 A4 F2 B4 A2 B2 | %29
w: te, Che di quel|dol- ce ar- dor pren- do|_ va- ghez- za, pren-|do va- ghez- * * *|za, E si dol- ce e'l gio-|
 G4 F2 B4 A2 B4 | B2 A2 B2 c2 d4 e2 f2- | f2 g2 f2 e2 e2 ^d2 !fermata!e4 | z2 A2 A2 B2 c4 d2 A2- | %33
w: i- re, il gio- i-|re, Che di dol- cez- za sen-|* to- mi mo- ri- * re,|Che di dol- cez- za sen-|
 A2 A2 A2 F2 F4 F2 F2 | B2 G2 F4 z4 B4 | d4 c4 B4 z2 c2 | d4 e4 f8 | z4 z2 F2 G2 A2 B2 d2 | %38
w: * to- mi mo- ri- re, Et|ben mor- ro, Et|ben mor- ro, Et|ben mor- ro|se to- sto non m'a-|
 B4 c4 z2 e2 B2 c2 | d2 B2 A4 G2 d2 d4- | d2 d2 d2 B2 c4 ^d4 |[M:3/2] d4 e4 B4 | c8 d4 | d4 e4 B4 | %44
w: i- ta, se to- sto|non m'a- i- ta, se to-|* sto non m'a- i- ta,|Lau- ra fe-|li- ce,|Lau- ra fe-|
 c8 d4 | B6 B2 A4 | G4 F8 | E12 |] %48
w: li- ce|vi- ta di|mia vi-|ta.|
V:4
 z12 |[K:D] B,4 E,4 G,4 | F,8 B,,4 | B,4 E,4 G,4 | F,8 B,,4 | G,6 G,2 D,4 | E,4 B,,8 | %7
w: |Lau- ra fe-|li- ce,|Lau- ra fe-|li- ce|vi- ta di|mia vi-|
[M:4/2] E,8 z4 D,4 | E,4 F,2 G,4 E,2 D,4 | G,,4 z2 G,2 F,2 G,2 D,2 D,2 | E,3 F, G,4 D,4 z4 | %11
w: ta, Che|co- sì dol- ce- men-|te, Che co- sì dol- ce-|men- * * te,|
 z4 z2 B,2 A,2 A,2 G,4 | F,2 F,2 G,4 D,2 D,2 E,4 | B,,4 z4 z4 E,4 | D,2 D,2 =C,4 B,,2 B,,2 C,4 | %15
w: A l'a- mo- ro-|so suo fo- co m'in- vi-|ta, A|l'a- mo- ro- so suo fo-|
 G,,2 G,,2 A,,4 E,8 | z8 A,,8- | A,,4 A,,4 D,8 | D,4 B,,4 E,8 | D,8 z2 F,2 E,4 | %20
w: co m'in- vi- ta,|Con|_ si dol-|ce dol- cez-|za, M'in- fiamm'|
 D,4 A,6 F,2 F,2 F,2 | G,2 A,2 B,4 F,4 z2 A,2 | B,3 C D6 C2 C4 | D8 z8 | z4 D,4 B,,4 E,2 E,2- | %25
w: il cor, M'in- fiamm' il|cor so- ven- te, M'in-|fiamm' il cor so- ven-|te,|Che di quel dol-|
 E,2 D,2 E,4 z2 D,2 B,,2 E,2 | E,6 D,2 E,4 F,4- | F,2 D,2 G,4 E,8 | D,8 z2 D,4 B,,2 | %29
w: * ce ar- dor, Che di quel|dol- ce ar- dor pren-|* do va- ghez-|za, E si|
 E,4 D,2 E,2 =C,4 B,,4 | z2 F,2 G,2 A,2 B,4 =C2 B,2- | B,2 B,2 A,2 G,2 F,4 E,4 | %32
w: dol- ce e'l gio- i- re,|Che di dol- cez- za sen-|* to- mi mo- ri- re,|
 z2 A,2 D,2 G,2 F,4 B,,2 F,2- | F,2 D,2 A,,2 B,,2 F,4 B,,4 | z4 F,4 B,4 G,4 | F,8 z4 F,4 | %36
w: Che di dol- cez- za sen-|* to- mi mo- ri- re,|Et ben mor-|ro, Et|
 B,4 G,4 F,8 | z4 z2 B,,2 E,2 D,2 G,4- | G,4 F,4 E,8 | D,8 z2 F,2 G,2 A,2 | B,4 G,4 F,4 B,,4 | %41
w: ben mor- ro|se to- sto non|_ m'a- i-|ta, se to- sto|non m'a- i- ta,|
[M:3/2] B,4 E,4 G,4 | F,8 B,,4 | B,4 E,4 G,4 | F,8 B,,4 | G,6 G,2 D,4 | E,4 B,,8 | E,12 |] %48
w: Lau- ra fe-|li- ce,|Lau- ra fe-|li- ce|vi- ta di|mia vi-|ta.|

